material/.icons/material/credit-card-remove-outline.svg

<svg xmlns="http://www.w3.org/2000/svg" viewBox="0 0 24 24"><path d="M13 19c0-.34.04-.67.09-1H3v-6h16v1c.7 0 1.37.13 2 .35V6c0-1.11-.89-2-2-2H3c-1.11 0-2 .89-2 2v12a2 2 0 002 2h10.09c-.05-.33-.09-.66-.09-1M3 6h16v2H3V6m19.54 10.88L20.41 19l2.13 2.12-1.42 1.42L19 20.41l-2.12 2.13-1.41-1.42L17.59 19l-2.12-2.12 1.41-1.41L19 17.59l2.12-2.13 1.42 1.42z"/></svg>

<?xml version="1.0" encoding="UTF-8"?><!DOCTYPE svg PUBLIC "-//W3C//DTD SVG 1.1//EN" "http://www.w3.org/Graphics/SVG/1.1/DTD/svg11.dtd"><svg xmlns="http://www.w3.org/2000/svg" xmlns:xlink="http://www.w3.org/1999/xlink" version="1.1" id="mdi-credit-card-remove-outline" width="24" height="24" viewBox="0 0 24 24"><path d="M13 19C13 18.66 13.04 18.33 13.09 18H3V12H19V13C19.7 13 20.37 13.13 21 13.35V6C21 4.89 20.11 4 19 4H3C1.89 4 1 4.89 1 6V18C1 19.1 1.89 20 3 20H13.09C13.04 19.67 13 19.34 13 19M3 6H19V8H3V6M22.54 16.88L20.41 19L22.54 21.12L21.12 22.54L19 20.41L16.88 22.54L15.47 21.12L17.59 19L15.47 16.88L16.88 15.47L19 17.59L21.12 15.46L22.54 16.88Z" /></svg>
